packages/core/src/svgs/bridge.svg

<svg width="24" height="24" viewBox="0 0 24 24" fill="none" xmlns="http://www.w3.org/2000/svg">
<g clip-path="url(#clip0_31_7345)">
<path d="M0 0H24V24H0V0Z" fill="#F0F3FA"/>
<path d="M15.1157 10.9584L14.0743 11.9998L8.25854 6.1884V6.17554L9.28712 5.14697H9.30426L15.1157 10.9584Z" fill="#0050FF"/>
<path d="M15.7414 6.17983L14.7043 5.14697H14.6957L12.5186 7.32412V7.33269L13.5514 8.36983H13.5643L15.7414 6.1884V6.17983Z" fill="#1A1A1E"/>
<path d="M8.87991 10.9545L7.84277 12.0002L5.15134 9.30876C5.15043 9.30796 5.1497 9.30697 5.1492 9.30586C5.1487 9.30475 5.14844 9.30355 5.14844 9.30234C5.14844 9.30112 5.1487 9.29992 5.1492 9.29881C5.1497 9.2977 5.15043 9.29671 5.15134 9.29591L6.17991 8.26734C6.18268 8.26636 6.18571 8.26636 6.18848 8.26734H6.19277L8.8842 10.9588L8.87991 10.9545Z" fill="#0050FF"/>
<path d="M16.1571 12.0045L15.1157 13.0416L13.5599 14.5973H13.5557L12.5228 13.5688L12.5185 13.5602V13.5516L14.0785 12.0002L15.1199 10.9588L17.8114 8.26304C17.8137 8.26093 17.8168 8.25977 17.8199 8.25977C17.8231 8.25977 17.8262 8.26093 17.8285 8.26304L18.8571 9.29161V9.30875L16.1657 12.0088L16.1571 12.0045ZM9.92565 12.0002L8.88851 13.0459L6.18851 15.7373C6.18721 15.7381 6.18573 15.7385 6.18422 15.7385C6.18272 15.7385 6.18124 15.7381 6.17994 15.7373L5.14279 14.7088C5.14188 14.7079 5.14115 14.707 5.14065 14.7059C5.14015 14.7047 5.13989 14.7035 5.13989 14.7023C5.13989 14.7011 5.14015 14.6999 5.14065 14.6988C5.14115 14.6977 5.14188 14.6967 5.14279 14.6959L7.83422 11.9959L8.87565 10.9545L10.4314 9.41161V9.40733C10.4327 9.40657 10.4341 9.40618 10.4357 9.40618C10.4372 9.40618 10.4386 9.40657 10.4399 9.40733L11.4728 10.4402V10.4488L9.92137 12.0045L9.92565 12.0002Z" fill="#1A1A1E"/>
<path d="M9.92581 12L15.7372 17.8114V17.8243L14.7087 18.8529C14.7074 18.8536 14.7059 18.854 14.7044 18.854C14.7029 18.854 14.7014 18.8536 14.7001 18.8529L8.88867 13.0457L9.92581 12ZM16.1572 12.0043L18.8572 14.7V14.7129L17.8244 15.7414C17.8231 15.7422 17.8216 15.7426 17.8201 15.7426C17.8186 15.7426 17.8171 15.7422 17.8158 15.7414L15.1158 13.0457L16.153 12.0086H16.1615L16.1572 12.0043Z" fill="#0050FF"/>
<path d="M8.25847 17.8114L10.4356 15.6342C10.4364 15.6333 10.4374 15.6326 10.4385 15.6321C10.4396 15.6316 10.4408 15.6313 10.442 15.6313C10.4433 15.6313 10.4445 15.6316 10.4456 15.6321C10.4467 15.6326 10.4477 15.6333 10.4485 15.6342L11.477 16.6671H11.4813V16.6714C11.4821 16.6727 11.4825 16.6742 11.4825 16.6757C11.4825 16.6772 11.4821 16.6787 11.4813 16.68L9.30419 18.8528H9.29562L8.25847 17.8242V17.82C8.25772 17.8187 8.25732 17.8172 8.25732 17.8157C8.25732 17.8142 8.25772 17.8127 8.25847 17.8114Z" fill="#1A1A1E"/>
</g>
<defs>
<clipPath id="clip0_31_7345">
<rect width="24" height="24" fill="white"/>
</clipPath>
</defs>
</svg>

<svg xmlns="http://www.w3.org/2000/svg" width="24" height="24" fill="none" viewBox="0 0 24 24"><g clip-path="url(#a)"><path fill="#F0F3FA" d="M0 0h24v24H0z"/><path fill="#0050FF" d="M15.116 10.958 14.074 12 8.26 6.188v-.012l1.028-1.029h.017z"/><path fill="#1A1A1E" d="m15.741 6.18-1.037-1.033h-.008l-2.177 2.177v.009L13.55 8.37h.013l2.177-2.182z"/><path fill="#0050FF" d="M8.88 10.955 7.843 12 5.15 9.31a.01.01 0 0 1-.002-.01l.002-.003L6.18 8.267h.013l2.691 2.692z"/><path fill="#1A1A1E" d="m16.157 12.005-1.041 1.037-1.556 1.555h-.004l-1.033-1.028-.005-.009v-.008L14.079 12l1.042-1.041 2.691-2.696.009-.003q.005 0 .008.003l1.03 1.029v.017l-2.692 2.7zM9.926 12l-1.037 1.046-2.7 2.691a.01.01 0 0 1-.01 0L5.144 14.71l-.002-.003-.001-.004.003-.006 2.691-2.7 1.042-1.042 1.555-1.542v-.005a.01.01 0 0 1 .009 0l1.033 1.033v.009L9.92 12.005z"/><path fill="#0050FF" d="m9.926 12 5.811 5.811v.013l-1.028 1.029-.005.001-.004-.001-5.811-5.807zm6.231.004 2.7 2.696v.013l-1.033 1.028a.01.01 0 0 1-.008 0l-2.7-2.695 1.037-1.037h.009z"/><path fill="#1A1A1E" d="m8.258 17.811 2.178-2.177.002-.002h.008l.002.002 1.029 1.033h.004v.004a.01.01 0 0 1 0 .009l-2.177 2.173h-.008l-1.038-1.029v-.004a.01.01 0 0 1 0-.009"/></g><defs><clipPath id="a"><path fill="#fff" d="M0 0h24v24H0z"/></clipPath></defs></svg>
